packages/astro-components-stencil/src/icons/arrow-forward.svg

<svg width="24" height="24" viewBox="0 0 24 24" fill="none" xmlns="http://www.w3.org/2000/svg">
<path d="M5 13.0002H16.17L11.29 17.8802C10.9 18.2702 10.9 18.9102 11.29 19.3002C11.68 19.6902 12.31 19.6902 12.7 19.3002L19.29 12.7102C19.68 12.3202 19.68 11.6902 19.29 11.3002L12.71 4.70021C12.32 4.31021 11.69 4.31021 11.3 4.70021C10.91 5.09021 10.91 5.72021 11.3 6.11021L16.17 11.0002H5C4.45 11.0002 4 11.4502 4 12.0002C4 12.5502 4.45 13.0002 5 13.0002Z" fill="black"/>
</svg>

<svg xmlns="http://www.w3.org/2000/svg" viewBox="0 0 24 24"><g xmlns="http://www.w3.org/2000/svg" id="arrow-forward" fill-rule="nonzero">
            <path d="M5 13h11.17l-4.88 4.88c-.39.39-.39 1.03 0 1.42.39.39 1.02.39 1.41 0l6.59-6.59a.996.996 0 000-1.41l-6.58-6.6a.996.996 0 10-1.41 1.41L16.17 11H5c-.55 0-1 .45-1 1s.45 1 1 1z"/>
        </g></svg>
